src/assets/img/globalping/polygons_1.svg

<svg width="363" height="288" viewBox="0 0 363 288" fill="none" xmlns="http://www.w3.org/2000/svg">
<path fill-rule="evenodd" clip-rule="evenodd" d="M284.533 39.2547L222.032 3.16932C220.175 2.09753 217.888 2.09753 216.032 3.16933L153.53 39.2547C151.674 40.3265 150.53 42.3072 150.53 44.4508V116.622C150.53 118.765 151.674 120.746 153.53 121.818L216.032 157.903C217.888 158.975 220.175 158.975 222.032 157.903L284.533 121.818C286.39 120.746 287.533 118.765 287.533 116.622V44.4508C287.533 42.3072 286.39 40.3265 284.533 39.2547ZM223.032 1.43727C220.557 0.00821084 217.507 0.00821507 215.032 1.43728L152.53 37.5226C150.055 38.9517 148.53 41.5927 148.53 44.4508V116.622C148.53 119.48 150.055 122.121 152.53 123.55L215.032 159.635C217.507 161.064 220.557 161.064 223.032 159.635L285.533 123.55C288.009 122.121 289.533 119.48 289.533 116.622V44.4508C289.533 41.5927 288.009 38.9517 285.533 37.5226L223.032 1.43727ZM148.032 130.168L210.533 166.254C212.39 167.326 213.533 169.306 213.533 171.45V243.621C213.533 245.764 212.39 247.745 210.533 248.817L148.032 284.902C146.175 285.974 143.888 285.974 142.032 284.902L79.5301 248.817C77.6737 247.745 76.5301 245.764 76.5301 243.621V171.45C76.5301 169.306 77.6737 167.326 79.5301 166.254L142.032 130.168C143.888 129.097 146.175 129.097 148.032 130.168ZM141.032 128.436C143.507 127.007 146.557 127.007 149.032 128.436L211.533 164.522C214.009 165.951 215.533 168.592 215.533 171.45V243.621C215.533 246.479 214.009 249.12 211.533 250.549L149.032 286.634C146.557 288.063 143.507 288.063 141.032 286.634L78.5301 250.549C76.0549 249.12 74.5301 246.479 74.5301 243.621V171.45C74.5301 168.592 76.0549 165.951 78.5301 164.522L141.032 128.436ZM295.032 130.168L357.533 166.254C359.39 167.326 360.533 169.306 360.533 171.45V243.621C360.533 245.764 359.39 247.745 357.533 248.817L295.032 284.902C293.175 285.974 290.888 285.974 289.032 284.902L226.53 248.817C224.674 247.745 223.53 245.764 223.53 243.621V171.45C223.53 169.306 224.674 167.326 226.53 166.254L289.032 130.168C290.888 129.097 293.175 129.097 295.032 130.168ZM288.032 128.436C290.507 127.007 293.557 127.007 296.032 128.436L358.533 164.522C361.009 165.951 362.533 168.592 362.533 171.45V243.621C362.533 246.479 361.009 249.12 358.533 250.549L296.032 286.634C293.557 288.063 290.507 288.063 288.032 286.634L225.53 250.549C223.055 249.12 221.53 246.479 221.53 243.621V171.45C221.53 168.592 223.055 165.951 225.53 164.522L288.032 128.436ZM74.0318 3.16938L136.533 39.2547C138.39 40.3265 139.533 42.3073 139.533 44.4509V116.622C139.533 118.765 138.39 120.746 136.533 121.818L74.0318 157.903C72.1754 158.975 69.8882 158.975 68.0318 157.903L5.5301 121.818C3.67369 120.746 2.53009 118.765 2.53009 116.622V44.4509C2.53009 42.3073 3.67369 40.3265 5.53009 39.2547L68.0317 3.16939C69.8882 2.09759 72.1753 2.09759 74.0318 3.16938ZM67.0317 1.43733C69.507 0.00827265 72.5565 0.00826842 75.0318 1.43733L137.533 37.5227C140.009 38.9517 141.533 41.5928 141.533 44.4509V116.622C141.533 119.48 140.009 122.121 137.533 123.55L75.0318 159.635C72.5565 161.064 69.507 161.064 67.0318 159.635L4.5301 123.55C2.05489 122.121 0.53009 119.48 0.53009 116.622V44.4509C0.53009 41.5928 2.05488 38.9517 4.53009 37.5227L67.0317 1.43733Z" fill="url(#paint0_radial_6017_11735)"/>
<path fill-rule="evenodd" clip-rule="evenodd" d="M284.533 39.2547L222.032 3.16932C220.175 2.09753 217.888 2.09753 216.032 3.16933L153.53 39.2547C151.674 40.3265 150.53 42.3072 150.53 44.4508V116.622C150.53 118.765 151.674 120.746 153.53 121.818L216.032 157.903C217.888 158.975 220.175 158.975 222.032 157.903L284.533 121.818C286.39 120.746 287.533 118.765 287.533 116.622V44.4508C287.533 42.3072 286.39 40.3265 284.533 39.2547ZM223.032 1.43727C220.557 0.00821084 217.507 0.00821507 215.032 1.43728L152.53 37.5226C150.055 38.9517 148.53 41.5927 148.53 44.4508V116.622C148.53 119.48 150.055 122.121 152.53 123.55L215.032 159.635C217.507 161.064 220.557 161.064 223.032 159.635L285.533 123.55C288.009 122.121 289.533 119.48 289.533 116.622V44.4508C289.533 41.5927 288.009 38.9517 285.533 37.5226L223.032 1.43727ZM148.032 130.168L210.533 166.254C212.39 167.326 213.533 169.306 213.533 171.45V243.621C213.533 245.764 212.39 247.745 210.533 248.817L148.032 284.902C146.175 285.974 143.888 285.974 142.032 284.902L79.5301 248.817C77.6737 247.745 76.5301 245.764 76.5301 243.621V171.45C76.5301 169.306 77.6737 167.326 79.5301 166.254L142.032 130.168C143.888 129.097 146.175 129.097 148.032 130.168ZM141.032 128.436C143.507 127.007 146.557 127.007 149.032 128.436L211.533 164.522C214.009 165.951 215.533 168.592 215.533 171.45V243.621C215.533 246.479 214.009 249.12 211.533 250.549L149.032 286.634C146.557 288.063 143.507 288.063 141.032 286.634L78.5301 250.549C76.0549 249.12 74.5301 246.479 74.5301 243.621V171.45C74.5301 168.592 76.0549 165.951 78.5301 164.522L141.032 128.436ZM295.032 130.168L357.533 166.254C359.39 167.326 360.533 169.306 360.533 171.45V243.621C360.533 245.764 359.39 247.745 357.533 248.817L295.032 284.902C293.175 285.974 290.888 285.974 289.032 284.902L226.53 248.817C224.674 247.745 223.53 245.764 223.53 243.621V171.45C223.53 169.306 224.674 167.326 226.53 166.254L289.032 130.168C290.888 129.097 293.175 129.097 295.032 130.168ZM288.032 128.436C290.507 127.007 293.557 127.007 296.032 128.436L358.533 164.522C361.009 165.951 362.533 168.592 362.533 171.45V243.621C362.533 246.479 361.009 249.12 358.533 250.549L296.032 286.634C293.557 288.063 290.507 288.063 288.032 286.634L225.53 250.549C223.055 249.12 221.53 246.479 221.53 243.621V171.45C221.53 168.592 223.055 165.951 225.53 164.522L288.032 128.436ZM74.0318 3.16938L136.533 39.2547C138.39 40.3265 139.533 42.3073 139.533 44.4509V116.622C139.533 118.765 138.39 120.746 136.533 121.818L74.0318 157.903C72.1754 158.975 69.8882 158.975 68.0318 157.903L5.5301 121.818C3.67369 120.746 2.53009 118.765 2.53009 116.622V44.4509C2.53009 42.3073 3.67369 40.3265 5.53009 39.2547L68.0317 3.16939C69.8882 2.09759 72.1753 2.09759 74.0318 3.16938ZM67.0317 1.43733C69.507 0.00827265 72.5565 0.00826842 75.0318 1.43733L137.533 37.5227C140.009 38.9517 141.533 41.5928 141.533 44.4509V116.622C141.533 119.48 140.009 122.121 137.533 123.55L75.0318 159.635C72.5565 161.064 69.507 161.064 67.0318 159.635L4.5301 123.55C2.05489 122.121 0.53009 119.48 0.53009 116.622V44.4509C0.53009 41.5928 2.05488 38.9517 4.53009 37.5227L67.0317 1.43733Z" fill="url(#paint1_radial_6017_11735)"/>
<defs>
<radialGradient id="paint0_radial_6017_11735" cx="0" cy="0" r="1" gradientUnits="userSpaceOnUse" gradientTransform="translate(61.5 241) rotate(-44.8809) scale(170.06 167.606)">
<stop stop-color="#2E67EA"/>
<stop offset="1" stop-color="#2E67EA" stop-opacity="0"/>
</radialGradient>
<radialGradient id="paint1_radial_6017_11735" cx="0" cy="0" r="1" gradientUnits="userSpaceOnUse" gradientTransform="translate(330 91) rotate(119.726) scale(128.985 148.915)">
<stop stop-color="#17D4A7" stop-opacity="0.5"/>
<stop offset="1" stop-color="#17D4A7" stop-opacity="0"/>
</radialGradient>
</defs>
</svg>

<svg xmlns="http://www.w3.org/2000/svg" width="363" height="288" fill="none">
  <path fill="url(#a)" fill-rule="evenodd" d="M284.533 39.255 222.032 3.169a6 6 0 0 0-6 0L153.53 39.255a6 6 0 0 0-3 5.196v72.171a6.002 6.002 0 0 0 3 5.196l62.502 36.085a5.999 5.999 0 0 0 6 0l62.501-36.085a6 6 0 0 0 3-5.196V44.451a5.999 5.999 0 0 0-3-5.196ZM223.032 1.437a8 8 0 0 0-8 0L152.53 37.523a8 8 0 0 0-4 6.928v72.171a8 8 0 0 0 4 6.928l62.502 36.085a8 8 0 0 0 8 0l62.501-36.085a7.998 7.998 0 0 0 4-6.928V44.451c0-2.858-1.524-5.5-4-6.928L223.032 1.437Zm-75 128.731 62.501 36.086a5.998 5.998 0 0 1 3 5.196v72.171a6 6 0 0 1-3 5.196l-62.501 36.085a5.999 5.999 0 0 1-6 0L79.53 248.817a6 6 0 0 1-3-5.196V171.45a6 6 0 0 1 3-5.196l62.502-36.086a6.004 6.004 0 0 1 6 0Zm-7-1.732a8 8 0 0 1 8 0l62.501 36.086a7.998 7.998 0 0 1 4 6.928v72.171a7.998 7.998 0 0 1-4 6.928l-62.501 36.085a8 8 0 0 1-8 0L78.53 250.549a8 8 0 0 1-4-6.928V171.45a8 8 0 0 1 4-6.928l62.502-36.086Zm154 1.732 62.501 36.086a5.998 5.998 0 0 1 3 5.196v72.171a6 6 0 0 1-3 5.196l-62.501 36.085a5.999 5.999 0 0 1-6 0l-62.502-36.085a6.002 6.002 0 0 1-3-5.196V171.45a6 6 0 0 1 3-5.196l62.502-36.086a6.004 6.004 0 0 1 6 0Zm-7-1.732a8 8 0 0 1 8 0l62.501 36.086a7.998 7.998 0 0 1 4 6.928v72.171a7.998 7.998 0 0 1-4 6.928l-62.501 36.085a8 8 0 0 1-8 0l-62.502-36.085a8 8 0 0 1-4-6.928V171.45a8 8 0 0 1 4-6.928l62.502-36.086Zm-214-125.267 62.501 36.086a5.999 5.999 0 0 1 3 5.196v72.171a6 6 0 0 1-3 5.196l-62.501 36.085a5.999 5.999 0 0 1-6 0L5.53 121.818a6 6 0 0 1-3-5.196V44.451a6 6 0 0 1 3-5.196L68.032 3.169a6 6 0 0 1 6 0Zm-7-1.732a8 8 0 0 1 8 0l62.501 36.086a7.998 7.998 0 0 1 4 6.928v72.171a7.998 7.998 0 0 1-4 6.928l-62.501 36.085a8 8 0 0 1-8 0L4.53 123.55a8 8 0 0 1-4-6.928V44.451a8 8 0 0 1 4-6.928L67.032 1.437Z" clip-rule="evenodd"/>
  <path fill="url(#b)" fill-rule="evenodd" d="M284.533 39.255 222.032 3.169a6 6 0 0 0-6 0L153.53 39.255a6 6 0 0 0-3 5.196v72.171a6.002 6.002 0 0 0 3 5.196l62.502 36.085a5.999 5.999 0 0 0 6 0l62.501-36.085a6 6 0 0 0 3-5.196V44.451a5.999 5.999 0 0 0-3-5.196ZM223.032 1.437a8 8 0 0 0-8 0L152.53 37.523a8 8 0 0 0-4 6.928v72.171a8 8 0 0 0 4 6.928l62.502 36.085a8 8 0 0 0 8 0l62.501-36.085a7.998 7.998 0 0 0 4-6.928V44.451c0-2.858-1.524-5.5-4-6.928L223.032 1.437Zm-75 128.731 62.501 36.086a5.998 5.998 0 0 1 3 5.196v72.171a6 6 0 0 1-3 5.196l-62.501 36.085a5.999 5.999 0 0 1-6 0L79.53 248.817a6 6 0 0 1-3-5.196V171.45a6 6 0 0 1 3-5.196l62.502-36.086a6.004 6.004 0 0 1 6 0Zm-7-1.732a8 8 0 0 1 8 0l62.501 36.086a7.998 7.998 0 0 1 4 6.928v72.171a7.998 7.998 0 0 1-4 6.928l-62.501 36.085a8 8 0 0 1-8 0L78.53 250.549a8 8 0 0 1-4-6.928V171.45a8 8 0 0 1 4-6.928l62.502-36.086Zm154 1.732 62.501 36.086a5.998 5.998 0 0 1 3 5.196v72.171a6 6 0 0 1-3 5.196l-62.501 36.085a5.999 5.999 0 0 1-6 0l-62.502-36.085a6.002 6.002 0 0 1-3-5.196V171.45a6 6 0 0 1 3-5.196l62.502-36.086a6.004 6.004 0 0 1 6 0Zm-7-1.732a8 8 0 0 1 8 0l62.501 36.086a7.998 7.998 0 0 1 4 6.928v72.171a7.998 7.998 0 0 1-4 6.928l-62.501 36.085a8 8 0 0 1-8 0l-62.502-36.085a8 8 0 0 1-4-6.928V171.45a8 8 0 0 1 4-6.928l62.502-36.086Zm-214-125.267 62.501 36.086a5.999 5.999 0 0 1 3 5.196v72.171a6 6 0 0 1-3 5.196l-62.501 36.085a5.999 5.999 0 0 1-6 0L5.53 121.818a6 6 0 0 1-3-5.196V44.451a6 6 0 0 1 3-5.196L68.032 3.169a6 6 0 0 1 6 0Zm-7-1.732a8 8 0 0 1 8 0l62.501 36.086a7.998 7.998 0 0 1 4 6.928v72.171a7.998 7.998 0 0 1-4 6.928l-62.501 36.085a8 8 0 0 1-8 0L4.53 123.55a8 8 0 0 1-4-6.928V44.451a8 8 0 0 1 4-6.928L67.032 1.437Z" clip-rule="evenodd"/>
  <defs>
    <radialGradient id="a" cx="0" cy="0" r="1" gradientTransform="matrix(120.50028 -120.00036 118.26873 118.76144 61.5 241)" gradientUnits="userSpaceOnUse">
      <stop stop-color="#2E67EA"/>
      <stop offset="1" stop-color="#2E67EA" stop-opacity="0"/>
    </radialGradient>
    <radialGradient id="b" cx="0" cy="0" r="1" gradientTransform="rotate(119.726 138.585 141.29) scale(128.985 148.915)" gradientUnits="userSpaceOnUse">
      <stop stop-color="#17D4A7" stop-opacity=".5"/>
      <stop offset="1" stop-color="#17D4A7" stop-opacity="0"/>
    </radialGradient>
  </defs>
</svg>
